src/app/components/ui/icon/card/mir.svg

<svg width="696px" height="197px" viewBox="0 0 696 197" xmlns="http://www.w3.org/2000/svg">
    <defs>
        <linearGradient x1="3.061617e-15%" y1="50%" x2="100%" y2="50%" id="linearGradient-1">
            <stop stop-color="#00A0E5" offset="0%"></stop>
            <stop stop-color="#0077C3" offset="100%"></stop>
        </linearGradient>
    </defs>
    <g id="Page-1" stroke="none" stroke-width="1" fill="none" fill-rule="evenodd">
        <g id="Artboard" transform="translate(-91.000000, -154.000000)">
            <g id="Group" transform="translate(91.000000, 154.000000)">
                <path
                    d="M502,89 L502,197 L562,197 L562,133 L630,133 C658.619564,132.787502 682.930776,114.505758 692.09808,89 L502,89 Z"
                    id="Combined-Shape"
                    fill="#37A72E"
                ></path>
                <path
                    d="M494,0 C497.494919,44.1444372 539.257926,79 590.263308,79 C590.430074,79 694.590622,79 694.590622,79 C695.360449,74.9514059 695.763308,70.7727622 695.763308,66.5 C695.763308,29.9318364 666.260084,0.270524225 629.763308,0.001839934 L494,0 Z"
                    id="Combined-Shape"
                    fill="url(#linearGradient-1)"
                ></path>
                <path
                    d="M405.19979,77.9495266 L405.24677,77.8487775 L405.253049,77.850313 C405.86803,76.7465852 407.046828,76 408.4,76 C410.354671,76 411.945491,77.5578317 411.998629,79.4996647 L412,79.5 L412,196 L472,196 L472,0 L412,0 C404.391212,0.253251264 395.794867,5.83658699 392.598944,12.6902649 L344.850492,115.087152 C344.732549,115.505722 344.548194,115.896458 344.309521,116.247267 L344.293593,116.281425 L344.287374,116.27948 C343.565021,117.319271 342.362007,118 341,118 C338.790861,118 337,116.209139 337,114 L337,0 L277,0 L277,196 L337,196 L337,195.97762 C344.525373,195.584588 352.919929,190.064049 356.069517,183.309735 L405.076657,78.213586 C405.114216,78.1236584 405.155318,78.0355807 405.19979,77.9495266 L405.19979,77.9495266 Z"
                    id="Combined-Shape"
                    fill="#37A72E"
                ></path>
                <path
                    d="M181.153244,81.2998858 L146.0859,196 L102.923214,196 L67.8345834,81.230262 C67.496231,79.3924019 65.885722,78 63.95,78 C61.7684753,78 60,79.7684753 60,81.95 C60,81.9666703 60.0001033,81.9833164 60.0003092,81.9999378 L60,196 L0,196 L0,0 L51.5,0 L66.8377203,0 C77.8779346,0 89.44724,8.56781336 92.6734514,19.1202754 L121.873913,114.630682 C123.326778,119.382788 125.683898,119.377681 127.135201,114.630682 L156.335662,19.1202754 C159.564128,8.56043891 171.129806,2.84217094e-14 182.171393,2.84217094e-14 L197.504557,0 L249,0 L249,196 L189,196 L189,82 C188.999897,81.9833164 189,81.9666703 189,81.95 C189,79.7684753 187.231525,78 185.05,78 C183.089908,78 181.463269,79.4276822 181.153244,81.2998858 L181.153244,81.2998858 Z"
                    id="Combined-Shape"
                    fill="#37A72E"
                ></path>
            </g>
        </g>
    </g>
</svg>

<svg xmlns="http://www.w3.org/2000/svg" viewBox="0 0 696 197">
    <defs>
        <linearGradient x1="0%" y1="50%" y2="50%" id="a">
            <stop stop-color="#00A0E5" offset="0%" />
            <stop stop-color="#0077C3" offset="100%" />
        </linearGradient>
    </defs>
    <g fill="none" fill-rule="evenodd">
        <path d="M502 89v108h60v-64h68c28.62-.212 52.93-18.494 62.098-44H502z" fill="#37A72E" />
        <path
            d="M494 0c3.495 44.144 45.258 79 96.263 79h104.328a66.87 66.87 0 0 0 1.172-12.5c0-36.568-29.503-66.23-66-66.498L494 0z"
            fill="url(#a)"
        />
        <path
            d="M405.2 77.95l.047-.101.006.001a3.6 3.6 0 0 1 6.746 1.65H412V196h60V0h-60c-7.609.253-16.205 5.837-19.401 12.69L344.85 115.087c-.117.419-.302.81-.54 1.16l-.016.034-.007-.002A4 4 0 0 1 337 114V.001h-60v196h60v-.022c7.525-.393 15.92-5.914 19.07-12.668l49.007-105.096c.037-.09.078-.178.123-.264zM181.153 81.3L146.086 196h-43.163L67.835 81.23A3.951 3.951 0 0 0 60 82v114H0V0h66.838c11.04 0 22.61 8.568 25.835 19.12l29.2 95.51c1.454 4.753 3.81 4.748 5.262 0l29.2-95.51C159.566 8.56 171.13 0 182.172 0H249v196h-60V82v-.05a3.95 3.95 0 0 0-7.847-.65z"
            fill="#37A72E"
        />
    </g>
</svg>
